img/brands/email.svg

<svg enable-background="new 0 0 26 26" viewBox="0 0 26 26" xmlns="http://www.w3.org/2000/svg"><path d="m23.2294922 4h-20.4589844c-.9765625 0-1.7705078.84375-1.7705078 1.8808594v14.2382813c0 1.0371093.7939453 1.8808593 1.7705078 1.8808593h20.4589844c.9765625 0 1.7705078-.84375 1.7705078-1.8808594v-14.2382812c0-1.0371094-.7939453-1.8808594-1.7705078-1.8808594zm-7.5628052 9.0003052 7.833313-5.6533203v11.3060913zm7.5628052-7.5003052c.0535278 0 .1077881.0323486.1549072.0806885l-10.3843994 7.4944458-10.3843994-7.4944458c.0471191-.0483399.1013794-.0806885.1549072-.0806885zm-20.7294922 13.1530151v-11.3060302l7.8328247 5.6529541zm.2705078 1.8469849c-.0535278 0-.1077881-.0324707-.1549072-.0807495l8.9987183-6.4944458.9472046.6835938c.0224609.0162964.0484619.0229492.0721436.036377.0231323.0131226.0447388.024231.0689697.03479.0959472.0419311.1954955.0704345.2963866.0704345.0003662 0 .0006104-.0002441.0009766-.0002441s.0006104.0002441.0009766.0002441c.1008911 0 .2004395-.0285034.2963867-.0704346.024231-.0105591.0458374-.0216675.0689697-.03479.0236816-.0134277.0496826-.0200806.0721436-.036377l.9467163-.6832886 8.9992065 6.4942017c-.0471191.0482788-.1013794.0806885-.1549072.0806885z" fill="#1d1d1b"/></svg>

<?xml version="1.0" ?><!DOCTYPE svg  PUBLIC '-//W3C//DTD SVG 1.1//EN'  'http://www.w3.org/Graphics/SVG/1.1/DTD/svg11.dtd'><svg enable-background="new 0 0 26 26" id="Слой_1" version="1.1" viewBox="0 0 26 26" xml:space="preserve" xmlns="http://www.w3.org/2000/svg" xmlns:xlink="http://www.w3.org/1999/xlink"><path d="M23.2294922,4H2.7705078C1.7939453,4,1,4.84375,1,5.8808594v14.2382813  C1,21.15625,1.7939453,22,2.7705078,22h20.4589844C24.2060547,22,25,21.15625,25,20.1191406V5.8808594  C25,4.84375,24.2060547,4,23.2294922,4z M15.666687,13.0003052L23.5,7.3469849v11.3060913L15.666687,13.0003052z M23.2294922,5.5  c0.0535278,0,0.1077881,0.0323486,0.1549072,0.0806885L13,13.0751343L2.6156006,5.5806885  C2.6627197,5.5323486,2.71698,5.5,2.7705078,5.5H23.2294922z M2.5,18.6530151V7.3469849l7.8328247,5.6529541L2.5,18.6530151z   M2.7705078,20.5c-0.0535278,0-0.1077881-0.0324707-0.1549072-0.0807495l8.9987183-6.4944458l0.9472046,0.6835938  c0.0224609,0.0162964,0.0484619,0.0229492,0.0721436,0.036377c0.0231323,0.0131226,0.0447388,0.024231,0.0689697,0.03479  C12.798584,14.7214966,12.8981323,14.75,12.9990234,14.75c0.0003662,0,0.0006104-0.0002441,0.0009766-0.0002441  S13.0006104,14.75,13.0009766,14.75c0.1008911,0,0.2004395-0.0285034,0.2963867-0.0704346  c0.024231-0.0105591,0.0458374-0.0216675,0.0689697-0.03479c0.0236816-0.0134277,0.0496826-0.0200806,0.0721436-0.036377  l0.9467163-0.6832886l8.9992065,6.4942017C23.3372803,20.4675903,23.28302,20.5,23.2294922,20.5H2.7705078z" fill="#1D1D1B"/></svg>
